X:1
T:Title
%%score { ( 1 4 ) | ( 2 3 ) }
L:1/8
Q:1/4=100
M:4/4
K:Ab
V:1 treble nm="Grand Piano"
V:4 treble 
V:2 treble 
V:3 treble 
V:1
 c2 e2 cB A2 | B2 [=Ec]2 BA F2 | [CE]2 [EA]2 [EB]3 [EB] | [EA]2 B2 c4 | c2 e2 cB A2 | %5
w: W.~A.~Ogden * * * *|||||
 B2 [=Ec]2 BA F2 | [CE]2 [EA]2 B3 A | c2 B2 [CA]4 | z4 B4 | [CA][Ec] [Ec]2 [Ec]4 | d2 d2 cB A2 | %11
w: ||||||
[M:5/4] Be [A=d]2 [Ge]6 |[M:4/4] c2 e2 cB A2 | z4 .B2 z2 | [CE]2 [EA]2 B3 A | %15
w: ||||
[M:8/4] c2 B2 [CA]4 z8 |] %16
w: |
V:2
 [A,E]2 [A,CE]2 ED [A,C]2 | [E,G,E]2 [C,G,]2 [D,F,]2 [D,A,D]2 | [A,,A,]2 [C,A,]2 [E,G,]3 [D,G,] | %3
 [C,A,]2 [E,G,E]2[K:treble] [A,E]4 | [A,E]2 [A,CE]2 ED[K:bass] [A,C]2 | %5
 [E,G,E]2 [C,G,]2 [D,F,]2 [D,A,D]2 | [A,,A,]2 [C,A,]2 [E,G,D]3 [E,A,C] | %7
 [E,A,E]2 [E,G,D]2 [A,,A,]4 | z4 E2 z2 | [A,,A,][A,,A,] [A,,A,]2 [A,,A,]4 | %10
 [A,F]2 [A,F]2 z B, [A,CE]2 |[M:5/4][K:bass] [G,B,E][G,B,E] [F,B,]2 [E,B,]6 | %12
[M:4/4] [A,E]2 [A,CE]2 ED [A,C]2 | [E,G,E]2 [C,G,]2 [D,F,]2 [D,A,D]2 | %14
 [A,,A,]2 [C,A,]2 [E,G,D]3 [E,A,C] |[M:8/4] [E,A,E]2 [E,G,D]2 [A,,A,]4 z8 |] %16
V:3
 z4 A,2 z2 | x8 | x8 | x4[K:treble] x4 | z4 A,2[K:bass] z2 | x8 | x8 | x8 | %8
 [E,B,E][E,G,E] [E,G,E]2 [E,G,]4 | x8 | z4 [A,E]2 z2 |[M:5/4][K:bass] x10 |[M:4/4] z4 A,2 z2 | x8 | %14
 x8 |[M:8/4] x16 |] %16
V:4
 x8 | z4 F2 z2 | x8 | x8 | x8 | z4 F2 z2 | x8 | x8 | GB B2 z2 D2 | x8 | x8 |[M:5/4] x10 | %12
[M:4/4] x8 | B2 [=Ec]2 F-[FA] F2 | x8 |[M:8/4] x16 |] %16

